svgs/regular/landmark-magnifying-glass.svg

<svg xmlns="http://www.w3.org/2000/svg" viewBox="0 0 640 512"><!--! Font Awesome Pro 6.6.0 by @fontawesome - https://fontawesome.com License - https://fontawesome.com/license (Commercial License) Copyright 2024 Fonticons, Inc. --><path d="M448 288c-16.7 0-32.8-2.6-48-7.3L400 384l-64 0 0-141.7c-5.8-5.7-11.1-11.8-16-18.3l-32 0 0 160-64 0 0-160-48 0 0 160-64 0 0-160-48 0 0 160-8 0c-13.3 0-24 10.7-24 24s10.7 24 24 24l400 0c13.3 0 24-10.7 24-24s-10.7-24-24-24l-8 0 0-96zM267.6 3c-7.2-4-16-4-23.2 0L17.6 128.1C6.7 134.1 0 145.5 0 157.9C0 176.8 15.2 192 34.1 192l267.3 0c-6.5-14.9-10.8-31.1-12.5-48L88.2 144 256 51.4l41.3 22.8c5.5-15.3 13.2-29.5 22.8-42.3L267.6 3zM0 488c0 13.3 10.7 24 24 24l464 0c13.3 0 24-10.7 24-24s-10.7-24-24-24L24 464c-13.3 0-24 10.7-24 24zM448 48.1a80 80 0 1 1 0 160 80 80 0 1 1 0-160zm0 208c26.7 0 51.4-8.2 71.9-22.1L599 313.1c9.4 9.4 24.6 9.4 33.9 0s9.4-24.6 0-33.9l-79.1-79.1c14-20.5 22.1-45.3 22.1-71.9c0-70.7-57.3-128-128-128s-128 57.3-128 128s57.3 128 128 128z"/></svg>

<svg xmlns="http://www.w3.org/2000/svg" viewBox="0 0 640 512"><!--! Font Awesome Pro 6.5.2 by @fontawesome - https://fontawesome.com License - https://fontawesome.com/license (Commercial License) Copyright 2024 Fonticons, Inc. --><path d="M448 288c-16.7 0-32.8-2.6-48-7.3V384H336V242.3c-5.8-5.7-11.1-11.8-16-18.3H288V384H224V224H176V384H112V224H64V384H56c-13.3 0-24 10.7-24 24s10.7 24 24 24H456c13.3 0 24-10.7 24-24s-10.7-24-24-24h-8V288zM267.6 3c-7.2-4-16-4-23.2 0L17.6 128.1C6.7 134.1 0 145.5 0 157.9C0 176.8 15.2 192 34.1 192H301.3c-6.5-14.9-10.8-31.1-12.5-48H88.2L256 51.4l41.3 22.8c5.5-15.3 13.2-29.5 22.8-42.3L267.6 3zM0 488c0 13.3 10.7 24 24 24H488c13.3 0 24-10.7 24-24s-10.7-24-24-24H24c-13.3 0-24 10.7-24 24zM448 48.1a80 80 0 1 1 0 160 80 80 0 1 1 0-160zm0 208c26.7 0 51.4-8.2 71.9-22.1L599 313.1c9.4 9.4 24.6 9.4 33.9 0s9.4-24.6 0-33.9l-79.1-79.1c14-20.5 22.1-45.3 22.1-71.9c0-70.7-57.3-128-128-128s-128 57.3-128 128s57.3 128 128 128z"/></svg>
